!!!COM: Palestrina, Giovanni Perluigi da
!!!OPR: Missa De Beata Marie Virginis (II)
!!!OMD: Credo
!!!OTL: Et incarnatus
**kern	**kern	**kern	**kern	**kern
*Ibass	*Itenor	*Itenor	*Icalto	*Icant
!Bassus	!Tenor 2	!Tenor 1	!Altus	!Cantus
*clefF4	*clefGv2	*clefGv2	*clefG2	*clefG2
*k[]	*k[]	*k[]	*k[]	*k[]
*G:mix	*G:mix	*G:mix	*G:mix	*G:mix
*M4/2	*M4/2	*M4/2	*M4/2	*M4/2
=47	=47	=47	=47	=47
0r	1g	0r	0r	0r
.	2f	.	.	.
.	2d	.	.	.
=48	=48	=48	=48	=48
1c	1e	1r	0r	0r
2B	2.d	1g	.	.
2G	.	.	.	.
.	4e	.	.	.
=49	=49	=49	=49	=49
2A	2c	2f	0r	0r
1B-	1d	2d	.	.
.	.	2.f	.	.
4A	4c	.	.	.
4G	4B	4e	.	.
=50	=50	=50	=50	=50
1A	1c	2f	1cc	1r
.	.	2f	.	.
1G	[1d	1g	2b	1gg
.	.	.	2g	.
=51	=51	=51	=51	=51
0r	2d]	0r	2a	2ff
.	2G	.	1b-	2dd
.	[1d	.	.	2.ff
.	.	.	4a	.
.	.	.	4g	4ee
=52	=52	=52	=52	=52
1r	1d]	0r	1a	2ff
.	.	.	.	2ff
1c	1e	.	1g	1gg
=53	=53	=53	=53	=53
2B	2d	1g	0r	0r
2c	2e	.	.	.
2A	2c	2f#	.	.
[2G	[2B	2g	.	.
=54	=54	=54	=54	=54
4G]	4B]	2e	0r	0r
4A	4c	.	.	.
2F	2A	2.d	.	.
1E	1G	.	.	.
.	.	4c#	.	.
.	.	2c#	.	.
=55	=55	=55	=55	=55
2.D	0A	4d	2r	2r
.	.	4e	.	.
.	.	4f	1d	1ff
4E	.	4g	.	.
4F	.	1a	.	.
4G	.	.	.	.
2A	.	.	2c#	2ee
=56	=56	=56	=56	=56
1D	2r	2r	4d	1ff
.	.	.	4e	.
.	1d	1f	4f	.
.	.	.	4g	.
1r	.	.	[1a	2dd
.	2c#	2e	.	[2ee
=57	=57	=57	=57	=57
0r	2d	2f	2a]	4ee]
.	.	.	.	4dd
.	2B-	2d	2g	1dd
.	2A	2e	1a	.
.	2A	2e	.	2cc#
=58	=58	=58	=58	=58
1G	2d	2d	2.b-	1dd
.	1g	1d	.	.
.	.	.	4b-	.
[1A	.	.	1a	1r
.	[2f	[2c	.	.
=59	=59	=59	=59	=59
2A]	2f]	2c]	0r	0r
2G	1e	2B-	.	.
1F	.	1A	.	.
.	[2d	.	.	.
=60	=60	=60	=60	=60
1E	4d]	1G	1g	2r
.	4c#	.	.	.
.	4c#	.	.	1gg
.	4B	.	.	.
2D	2d	2r	[1a	.
2D	2A	2d	.	[2ff
=61	=61	=61	=61	=61
2F	2A	1c	2a]	2ff]
2C	2e	.	2g	1ee
1D	[1a	1A	1f	.
.	.	.	.	[2dd
=62	=62	=62	=62	=62
0A	2a]	1.a	1e	2dd]
.	4g	.	.	4cc#
.	4f	.	.	4b
.	1e	.	1a	2cc#
.	.	2e	.	2cc#
=63	=63	=63	=63	=63
[0D	[0d	[0f#	[0a	[0dd
=64	=64	=64	=64	=64
0D]	0d]	0f#]	0a]	0dd]
*-	*-	*-	*-	*-
!!!CDT: 1525/^1526/-1594/2/2
!!!OCY: Italia
!!!AGN: Mass (Paraphrase)
!!!AST: renaissance, vocal
!!!ASW: Gregorian Mass
!!!PWK: Masses, Book Mantuan I
!!!RNB: Cadence finals: D
!!!YOR: Le Opere Complete, v. 18, p. 126
!!!YOO: Rome, Italy: Fratelli Scalera
!!!END: 1992//
!!!EED: John Miller
!!!YEC: Copyright 2000, John Miller
!!!YEN: United States of America
!!!YEM: Rights to all derivative electronic formats reserved.
!!!YEM: Refer to licensing agreement for further details.
!!!YEM: This file must be accompanied by the licensing agreement.
!!!YEM: A copy of the licensing agreement may be found at http://www.music-cog.ohio-state.edu/HumdrumDatabases/Palestrina/license.txt
!!!EMD: converted to Humdrum by Bret Aarden
